X: 4
P: Blackberry Quadrille
R: jig
Z: 1997 by John Chambers <jc@trillian.mit.edu>
M: 6/8
L: 1/8
K: D
|: "D"~a2a ba^g | a2f d2f | "A7"e2c A2g | "D"fdB A3 \
|  "D"~a2a ba^g | a2f d2f | "A7"e2c ABc | "D"d3- dz2 :|
c/B/ \
|: "D"A2B "G"G2A | "D"F2A def | "A7"g2e cBc | "D"dfe dcB \
|  "D"A2B "G"G2A | "D"F2A def | "A7"g2e cBc | "D"d3- dz2 :|
